packages/katcn/src/icons/svg/pin.svg

<svg width="24" height="24" viewBox="0 0 24 24" fill="none" xmlns="http://www.w3.org/2000/svg">
<path d="M22.6706 9.29146L14.7644 1.33166C14.3252 0.889447 13.6663 0.889447 13.2271 1.33166C12.7879 1.77387 12.7879 2.43719 13.2271 2.8794L13.4467 3.1005L7.07786 7.63317L3.56401 8.07538C2.46593 8.18593 1.47766 9.07035 1.14824 10.0653C0.818817 11.0603 1.03843 12.2764 1.80709 12.9397L5.65036 16.809L2.90517 19.5729C2.46593 20.0151 2.46593 20.6784 2.90517 21.1206C3.12478 21.3417 3.45421 21.4523 3.67382 21.4523C3.89344 21.4523 4.22286 21.3417 4.44248 21.1206L7.18767 18.3568L11.0309 22.2261C11.58 22.7789 12.2388 23 13.0075 23C13.3369 23 13.6663 23 13.8859 22.8894C14.984 22.5578 15.7527 21.5628 15.8625 20.4573L16.4115 16.9196L19.7058 12.2764C20.0352 11.7236 19.9254 11.0603 19.4861 10.7286C18.9371 10.397 18.2783 10.5075 17.9488 10.9497L14.5448 15.8141C14.435 15.9246 14.435 16.1457 14.3252 16.2563L13.7761 20.0151C13.6663 20.4573 13.3369 20.5678 13.2271 20.6784C13.1173 20.6784 12.7879 20.7889 12.5683 20.5678L7.95633 15.9246L3.45421 11.5025C3.12478 11.2814 3.23459 10.9497 3.23459 10.8392C3.23459 10.7286 3.45421 10.397 3.89344 10.2864L7.6269 9.73367C7.84652 9.73367 7.95633 9.62312 8.06613 9.51256L14.8742 4.64824L21.1333 10.9497C21.3529 11.1709 21.6823 11.2814 21.9019 11.2814C22.1215 11.2814 22.451 11.1709 22.6706 10.9497C23.1098 10.5075 23.1098 9.73367 22.6706 9.29146Z" fill="black"/>
</svg>

<svg xmlns="http://www.w3.org/2000/svg" fill="none" viewBox="0 0 24 24"><path fill="#000" d="m22.67 9.291-7.906-7.96a1.057 1.057 0 0 0-1.537 0 1.074 1.074 0 0 0 0 1.548l.22.221-6.37 4.533-3.513.442c-1.098.11-2.086.995-2.416 1.99s-.11 2.211.66 2.875l3.842 3.869-2.745 2.764a1.074 1.074 0 0 0 0 1.548c.22.22.55.331.769.331.22 0 .549-.11.768-.331l2.746-2.764 3.843 3.87c.549.552 1.208.773 1.976.773.33 0 .66 0 .879-.11 1.098-.332 1.867-1.327 1.977-2.433l.549-3.537 3.294-4.644c.33-.552.22-1.216-.22-1.547-.549-.332-1.208-.221-1.537.22l-3.404 4.865c-.11.11-.11.332-.22.442l-.549 3.76c-.11.441-.44.552-.549.662-.11 0-.44.11-.659-.11l-4.612-4.643-4.502-4.423c-.33-.22-.22-.552-.22-.663s.22-.442.66-.553l3.733-.552c.22 0 .33-.11.44-.221l6.807-4.865 6.26 6.302c.219.22.548.331.768.331s.549-.11.769-.331c.439-.442.439-1.216 0-1.659"/></svg>
